X:1
T:LA TROMPEUSE DE LA RANCE
C:traditionnel breton
I:Skol al louarn
Q:1/4=120
M:3/4
L:1/8
K:G
z4 z D |:GA Bc/B/ AB/A/ |GD GA B2 |1A2 d3 D :|2
A2 d4 ::Bc d3/2d/ de |dc AB c3/2c/ |cd BA GB |1
M:4/4
L:1/8
A2 A2 d4 :|2A2 d2 G4 ||:|
M:3/4
L:1/8
K:C
z4 z G |:cd ef/e/ de/d/ |
cG cd e2 |1d2 g3 G :|2d2 g4 ::ef g3/2g/ ga |
gf de f3/2f/ |fg ed ce |1
M:4/4
L:1/8
d2 d2 g4 :|2d2 g2 c4 :|
